icon/pk/rattle-one.svg

<svg viewBox="0 0 48 48" fill="none" xmlns="http://www.w3.org/2000/svg" height="1em" width="1em">
  <g clip-path="url(#clip0_12383_5394)">
    <circle cx="29.4632" cy="16.9889" r="11" transform="rotate(40 29.4632 16.9889)" fill="#2F88FF" stroke="black" stroke-width="4" stroke-linecap="round" stroke-linejoin="round"/>
    <path d="M38.5327 23.2932C38.5327 23.2932 32.8973 23.7862 27.535 19.2867C22.1727 14.7872 21.6797 9.15186 21.6797 9.15186" stroke="black" stroke-width="4" stroke-linecap="round" stroke-linejoin="round"/>
    <path d="M26.8655 27.8629C23.4051 28.8755 21.7981 30.7906 20.1911 32.7057C18.5842 34.6208 18.5093 37.8215 16.5809 40.1196C14.6526 42.4178 11.8349 42.6643 9.53676 40.7359C7.23863 38.8076 6.99211 35.9899 8.92048 33.6918C10.8488 31.3936 13.9879 30.7641 15.5949 28.849C17.2018 26.9339 18.8088 25.0188 19.2051 21.4351" stroke="black" stroke-width="4" stroke-linecap="round" stroke-linejoin="round"/>
    <path d="M38.832 10.4903C39.897 9.22108 39.7314 7.32882 38.4622 6.26381C37.193 5.19881 35.3007 5.36436 34.2357 6.63358" stroke="black" stroke-width="4" stroke-linecap="round" stroke-linejoin="round"/>
  </g>
  <defs>
    <clipPath id="clip0_12383_5394">
      <rect width="48" height="48" fill="white"/>
    </clipPath>
  </defs>
</svg>

<svg width="48" height="48" fill="none" xmlns="http://www.w3.org/2000/svg"><g clip-path="url(#a)" stroke="#000" stroke-width="4" stroke-linecap="round" stroke-linejoin="round"><circle cx="29.463" cy="16.989" r="11" transform="rotate(40 29.463 16.989)" fill="#2F88FF"/><path d="M38.533 23.293s-5.636.493-10.998-4.006c-5.362-4.5-5.855-10.135-5.855-10.135M26.866 27.863c-3.46 1.012-5.068 2.928-6.675 4.843-1.607 1.915-1.682 5.115-3.61 7.414-1.928 2.298-4.746 2.544-7.044.616-2.298-1.928-2.545-4.746-.617-7.044 1.929-2.298 5.068-2.928 6.675-4.843 1.607-1.915 3.214-3.83 3.61-7.414M38.832 10.49a3 3 0 0 0-4.596-3.856"/></g><defs><clipPath id="a"><path fill="#fff" d="M0 0h48v48H0z"/></clipPath></defs></svg>
